X:243
T:Biddy Maloney
R:jig
Z:id:hn-jig-243
M:6/8
K:D
F2A AFA|ABA FED|GBG FGA|BGE EAG|
F2A AFA|AFA d2A|Bcd edB|1 AFD D2E:|2 AFD D2d||
|:ecA Bcd|ecA AGF|GBG FGA|BGE E2d|
ecA Bcd|ecA d2A|Bcd edB|1 AFD D2d:|2 AFD D2f||
|:~g3 ~f3|gfe def|~g3 fga|bge e2f|
~g3 ~f3|gfe d2A|Bcd edB|1 AFD D2f:|2 AFD D2E||

